app/img/dropdown/ic_overview.svg

<svg width="118" height="87" viewBox="0 0 118 87" fill="none" xmlns="http://www.w3.org/2000/svg">
    <g filter="url(#filter0_i)">
        <rect width="89" height="79" rx="10" fill="#022AF0"/>
    </g>
    <rect x="0.5" y="0.5" width="88" height="78" rx="9.5" stroke="#FAFAFA" stroke-opacity="0.1"/>
    <rect x="7" y="15" width="50" height="8.14545" rx="4.07272" fill="#131DAA" fill-opacity="0.37"/>
    <rect x="7.5" y="15.5" width="49" height="7.14545" rx="3.57272" stroke="#80FF9F" stroke-opacity="0.5"/>
    <rect x="69" y="15" width="10" height="8.14545" rx="4.07272" fill="#022AF0" fill-opacity="0.36"/>
    <rect x="69.5" y="15.5" width="9" height="7.14545" rx="3.57272" stroke="#80FF9F" stroke-opacity="0.5"/>
    <rect x="7" y="36.3818" width="39" height="34.6182" rx="5" fill="#0A1193" fill-opacity="0.4"/>
    <rect x="7.5" y="36.8818" width="38" height="33.6182" rx="4.5" stroke="#80FF9F" stroke-opacity="0.5"/>
    <rect width="32" height="13.2364" rx="5" transform="matrix(-1 0 0 1 82 36.3818)" fill="#131DAA"
          fill-opacity="0.12"/>
    <rect x="-0.5" y="0.5" width="31" height="12.2364" rx="4.5" transform="matrix(-1 0 0 1 81 36.3818)" stroke="#80FF9F"
          stroke-opacity="0.5"/>
    <rect width="32" height="13.2364" rx="5" transform="matrix(-1 0 0 1 82 53.6909)" fill="#131DAA"
          fill-opacity="0.23"/>
    <rect x="-0.5" y="0.5" width="31" height="12.2364" rx="4.5" transform="matrix(-1 0 0 1 81 53.6909)" stroke="#80FF9F"
          stroke-opacity="0.5"/>
    <path d="M114.153 69.6285C113.601 70.647 112.991 71.6233 112.316 72.5634C112.241 72.6659 112.165 72.7743 112.09 72.8768C111.956 73.0636 112.38 72.4971 112.183 72.7502C112.148 72.7984 112.113 72.8406 112.078 72.8888C111.898 73.1299 111.706 73.3649 111.52 73.594C111.165 74.0218 110.799 74.4437 110.421 74.8475C109.648 75.6791 108.822 76.4626 107.95 77.1858C107.851 77.2701 107.752 77.3485 107.654 77.4268C107.479 77.5715 108.026 77.1315 107.776 77.3304C107.729 77.3666 107.688 77.4027 107.642 77.4329C107.409 77.6137 107.171 77.7944 106.927 77.9692C106.479 78.2947 106.026 78.602 105.555 78.8973C104.473 79.5783 103.345 80.1749 102.183 80.6812C102.322 80.6209 102.462 80.5606 102.601 80.5004C100.543 81.3923 98.3803 82.007 96.1652 82.3204C96.3222 82.2963 96.4734 82.2782 96.6303 82.2541C94.3513 82.5675 92.0373 82.5675 89.7525 82.2541C89.9094 82.2782 90.0606 82.2963 90.2176 82.3204C88.0025 82.007 85.8397 81.3923 83.7816 80.5004C83.9211 80.5606 84.0606 80.6209 84.2002 80.6812C83.1653 80.2292 82.1595 79.7049 81.1886 79.1203C80.7176 78.837 80.2583 78.5357 79.8049 78.2163C79.5839 78.0596 79.3688 77.9029 79.1537 77.7462C79.0432 77.6619 78.927 77.5775 78.8165 77.4871C78.77 77.4509 78.7293 77.4148 78.6828 77.3846C78.6363 77.3485 78.5956 77.3123 78.549 77.2822C78.6246 77.3425 78.6944 77.4027 78.77 77.457C77.8746 76.776 77.0432 75.9744 76.2642 75.1609C75.8805 74.7631 75.5084 74.3473 75.1479 73.9254C74.9735 73.7205 74.7991 73.5096 74.6305 73.2986C74.5433 73.1841 74.4502 73.0757 74.363 72.9612C74.3281 72.913 74.2933 72.8708 74.2584 72.8226C74.2235 72.7743 74.1886 72.7322 74.1537 72.6839C74.2119 72.7623 74.2642 72.8346 74.3223 72.913C73.52 71.9125 72.8456 70.7615 72.2351 69.6345C72.2351 70.2432 72.2351 70.8519 72.2351 71.4606C72.7875 70.4421 73.3979 69.4658 74.0723 68.5256C74.1479 68.4232 74.2235 68.3147 74.2991 68.2122C74.4328 68.0254 74.0084 68.5919 74.2061 68.3388C74.2409 68.2906 74.2758 68.2484 74.3107 68.2002C74.4909 67.9591 74.6828 67.7241 74.8688 67.4951C75.2235 67.0672 75.5898 66.6453 75.9677 66.2416C76.7409 65.4099 77.5665 64.6265 78.4386 63.9033C78.5374 63.8189 78.6363 63.7406 78.7351 63.6622C78.9095 63.5176 78.363 63.9575 78.613 63.7586C78.6595 63.7225 78.7002 63.6863 78.7467 63.6562C78.9793 63.4754 79.2176 63.2946 79.4618 63.1198C79.9095 62.7944 80.363 62.487 80.8339 62.1917C81.9153 61.5107 83.0432 60.9141 84.206 60.4079C84.0665 60.4681 83.9269 60.5284 83.7874 60.5887C85.8455 59.6967 88.0083 59.082 90.2234 58.7687C90.0664 58.7928 89.9153 58.8108 89.7583 58.835C92.0373 58.5216 94.3513 58.5216 96.6362 58.835C96.4792 58.8108 96.328 58.7928 96.171 58.7687C98.3861 59.082 100.549 59.6967 102.607 60.5887C102.468 60.5284 102.328 60.4681 102.188 60.4079C103.223 60.8599 104.229 61.3842 105.2 61.9688C105.671 62.252 106.13 62.5533 106.584 62.8727C106.805 63.0294 107.02 63.1861 107.235 63.3428C107.345 63.4272 107.462 63.5115 107.572 63.6019C107.619 63.6381 107.659 63.6743 107.706 63.7044C107.752 63.7406 107.793 63.7767 107.84 63.8068C107.764 63.7466 107.694 63.6863 107.619 63.6321C108.514 64.3071 109.345 65.1146 110.124 65.9282C110.508 66.3259 110.88 66.7418 111.241 67.1636C111.415 67.3685 111.59 67.5795 111.758 67.7904C111.845 67.9049 111.938 68.0134 112.026 68.1279C112.06 68.1761 112.095 68.2183 112.13 68.2665C112.165 68.3147 112.2 68.3569 112.235 68.4051C112.177 68.3268 112.124 68.2544 112.066 68.1761C112.869 69.1765 113.543 70.3276 114.153 71.4606C114.601 72.2862 115.758 72.6297 116.537 72.1114C117.34 71.5751 117.642 70.5204 117.165 69.6405C115.281 66.1693 112.717 63.168 109.671 60.7454C106.729 58.4071 103.293 56.7016 99.6943 55.7976C95.8106 54.8213 91.7583 54.749 87.8397 55.5384C84.1827 56.2797 80.6421 57.8526 77.6014 60.0764C74.4735 62.3424 71.8165 65.2351 69.7991 68.61C69.4038 69.2669 68.9096 69.978 69.0142 70.7796C69.0956 71.4063 69.5258 72.009 69.8456 72.5453C70.3514 73.389 70.9096 74.1966 71.4968 74.9861C72.6189 76.4927 73.8688 77.8909 75.2642 79.1323C78.1828 81.7358 81.5723 83.7125 85.2525 84.8877C88.9967 86.0809 92.985 86.3762 96.8629 85.8399C100.636 85.3156 104.299 83.9717 107.531 81.8865C110.787 79.7892 113.572 77.005 115.77 73.7567C116.27 73.0154 116.735 72.25 117.159 71.4606C117.607 70.6349 117.374 69.4477 116.531 68.9897C115.717 68.5256 114.63 68.7486 114.153 69.6285Z"
          fill="url(#paint0_linear)"/>
    <path d="M98.2756 70.5385C98.2756 70.8458 98.2523 71.1532 98.2174 71.4545C98.2407 71.2918 98.2581 71.1351 98.2814 70.9724C98.2 71.5931 98.043 72.1897 97.8163 72.7683C97.8744 72.6237 97.9325 72.479 97.9907 72.3344C97.8221 72.7502 97.6186 73.148 97.3802 73.5216C97.3221 73.612 97.2639 73.6964 97.2058 73.7807C97.0721 73.9796 97.3395 73.606 97.3395 73.606C97.3337 73.6421 97.2465 73.7265 97.2174 73.7566C97.0779 73.9314 96.9325 74.0941 96.7814 74.2508C96.636 74.4015 96.4907 74.5401 96.3337 74.6787C96.2872 74.7209 96.2349 74.7631 96.1884 74.8053C96.0372 74.9378 96.5256 74.5521 96.3628 74.6667C96.2756 74.7269 96.2 74.7872 96.1128 74.8474C95.7407 75.1066 95.3454 75.3235 94.9326 75.5043C95.0721 75.4441 95.2116 75.3838 95.3512 75.3235C94.793 75.5586 94.2116 75.7213 93.6186 75.8057C93.7756 75.7816 93.9268 75.7635 94.0837 75.7394C93.4907 75.8177 92.9035 75.8177 92.3105 75.7394C92.4675 75.7635 92.6186 75.7816 92.7756 75.8057C92.1768 75.7213 91.6012 75.5586 91.0431 75.3235C91.1826 75.3838 91.3221 75.4441 91.4617 75.5043C91.0605 75.3296 90.6768 75.1186 90.3163 74.8716C90.2291 74.8113 90.1477 74.751 90.0663 74.6908C89.8745 74.5521 90.2349 74.8294 90.2349 74.8294C90.2 74.8233 90.1186 74.7329 90.0896 74.7028C89.921 74.5582 89.764 74.4075 89.6128 74.2508C89.4675 74.1002 89.3338 73.9495 89.2 73.7868C89.1593 73.7386 89.1186 73.6843 89.0779 73.6361C88.95 73.4794 89.3221 73.9857 89.2117 73.8169C89.1535 73.7265 89.0954 73.6482 89.0372 73.5578C88.7873 73.1721 88.5779 72.7623 88.4035 72.3344C88.4617 72.479 88.5198 72.6237 88.5779 72.7683C88.3512 72.1897 88.1942 71.5871 88.1128 70.9724C88.1361 71.1351 88.1535 71.2918 88.1768 71.4545C88.1012 70.8398 88.1012 70.2311 88.1768 69.6164C88.1535 69.7791 88.1361 69.9358 88.1128 70.0985C88.1942 69.4778 88.3512 68.8812 88.5779 68.3026C88.5198 68.4473 88.4617 68.5919 88.4035 68.7365C88.5721 68.3207 88.7756 67.923 89.014 67.5493C89.0721 67.4589 89.1303 67.3745 89.1884 67.2902C89.3221 67.0913 89.0547 67.4649 89.0547 67.4649C89.0605 67.4288 89.1477 67.3444 89.1768 67.3143C89.3163 67.1395 89.4617 66.9768 89.6128 66.8201C89.7582 66.6694 89.9035 66.5308 90.0605 66.3922C90.107 66.35 90.1593 66.3078 90.2058 66.2657C90.357 66.1331 89.8686 66.5188 90.0314 66.4043C90.1186 66.344 90.1942 66.2837 90.2814 66.2235C90.6535 65.9643 91.0489 65.7474 91.4617 65.5666C91.3221 65.6268 91.1826 65.6871 91.0431 65.7474C91.6012 65.5123 92.1826 65.3496 92.7756 65.2653C92.6186 65.2894 92.4675 65.3074 92.3105 65.3315C92.9035 65.2532 93.4907 65.2532 94.0837 65.3315C93.9268 65.3074 93.7756 65.2894 93.6186 65.2653C94.2174 65.3496 94.793 65.5123 95.3512 65.7474C95.2116 65.6871 95.0721 65.6268 94.9326 65.5666C95.3337 65.7413 95.7174 65.9523 96.0779 66.1994C96.1651 66.2596 96.2465 66.3199 96.3279 66.3802C96.5198 66.5188 96.1593 66.2415 96.1593 66.2415C96.1942 66.2476 96.2756 66.338 96.3046 66.3681C96.4732 66.5127 96.6302 66.6634 96.7814 66.8201C96.9267 66.9708 97.0605 67.1214 97.1942 67.2841C97.2349 67.3324 97.2756 67.3866 97.3163 67.4348C97.4442 67.5915 97.0721 67.0853 97.1825 67.254C97.2407 67.3444 97.2988 67.4227 97.357 67.5131C97.607 67.8988 97.8163 68.3087 97.9907 68.7365C97.9325 68.5919 97.8744 68.4473 97.8163 68.3026C98.043 68.8812 98.2 69.4838 98.2814 70.0985C98.2581 69.9358 98.2407 69.7791 98.2174 69.6164C98.2523 69.9238 98.2698 70.2311 98.2756 70.5385C98.2814 71.4846 99.0721 72.3886 100.02 72.3464C100.962 72.3042 101.77 71.5509 101.764 70.5385C101.752 68.7787 101.252 66.9647 100.264 65.5244C99.1883 63.9635 97.7639 62.8245 96.0314 62.1616C92.8047 60.9261 88.8628 62.023 86.6826 64.7831C85.4966 66.2837 84.8105 68.0134 84.6536 69.9479C84.514 71.7136 84.9617 73.5698 85.8396 75.0885C86.6942 76.565 88.0024 77.8426 89.5198 78.5538C91.2582 79.3674 93.1012 79.6024 94.9791 79.2227C98.293 78.5538 101.113 75.5706 101.624 72.0993C101.7 71.5811 101.764 71.0628 101.764 70.5385C101.77 69.5923 100.956 68.6883 100.02 68.7305C99.0663 68.7727 98.2814 69.526 98.2756 70.5385Z"
          fill="url(#paint1_linear)"/>
    <defs>
        <filter id="filter0_i" x="0" y="0" width="89" height="83" filterUnits="userSpaceOnUse"
                color-interpolation-filters="sRGB">
            <feFlood flood-opacity="0" result="BackgroundImageFix"/>
            <feBlend mode="normal" in="SourceGraphic" in2="BackgroundImageFix" result="shape"/>
            <feColorMatrix in="SourceAlpha" type="matrix" values="0 0 0 0 0 0 0 0 0 0 0 0 0 0 0 0 0 0 127 0"
                           result="hardAlpha"/>
            <feOffset dy="4"/>
            <feGaussianBlur stdDeviation="15"/>
            <feComposite in2="hardAlpha" operator="arithmetic" k2="-1" k3="1"/>
            <feColorMatrix type="matrix" values="0 0 0 0 0.5 0 0 0 0 1 0 0 0 0 0.625065 0 0 0 1 0"/>
            <feBlend mode="normal" in2="shape" result="effect1_innerShadow"/>
        </filter>
        <linearGradient id="paint0_linear" x1="93.1963" y1="55" x2="93.1963" y2="86.0971"
                        gradientUnits="userSpaceOnUse">
            <stop stop-color="#63DCDB"/>
            <stop offset="1" stop-color="#79F6B1"/>
        </linearGradient>
        <linearGradient id="paint1_linear" x1="93.1962" y1="61.6576" x2="93.1962" y2="79.3997"
                        gradientUnits="userSpaceOnUse">
            <stop stop-color="#63DCDB"/>
            <stop offset="1" stop-color="#79F6B1"/>
        </linearGradient>
    </defs>
</svg>

<svg width="118" height="87" fill="none" xmlns="http://www.w3.org/2000/svg"><g filter="url(#a)"><rect width="89" height="79" rx="10" fill="#022AF0"/></g><rect x=".5" y=".5" width="88" height="78" rx="9.5" stroke="#FAFAFA" stroke-opacity=".1"/><rect x="7" y="15" width="50" height="8.145" rx="4.073" fill="#131DAA" fill-opacity=".37"/><rect x="7.5" y="15.5" width="49" height="7.145" rx="3.573" stroke="#80FF9F" stroke-opacity=".5"/><rect x="69" y="15" width="10" height="8.145" rx="4.073" fill="#022AF0" fill-opacity=".36"/><rect x="69.5" y="15.5" width="9" height="7.145" rx="3.573" stroke="#80FF9F" stroke-opacity=".5"/><rect x="7" y="36.382" width="39" height="34.618" rx="5" fill="#0A1193" fill-opacity=".4"/><rect x="7.5" y="36.882" width="38" height="33.618" rx="4.5" stroke="#80FF9F" stroke-opacity=".5"/><rect width="32" height="13.236" rx="5" transform="matrix(-1 0 0 1 82 36.382)" fill="#131DAA" fill-opacity=".12"/><rect x="-.5" y=".5" width="31" height="12.236" rx="4.5" transform="matrix(-1 0 0 1 81 36.382)" stroke="#80FF9F" stroke-opacity=".5"/><rect width="32" height="13.236" rx="5" transform="matrix(-1 0 0 1 82 53.69)" fill="#131DAA" fill-opacity=".23"/><rect x="-.5" y=".5" width="31" height="12.236" rx="4.5" transform="matrix(-1 0 0 1 81 53.69)" stroke="#80FF9F" stroke-opacity=".5"/><path d="M114.153 69.629a27.425 27.425 0 0 1-1.837 2.934l-.226.314c-.134.187.29-.38.093-.127-.035.048-.07.09-.105.139-.18.24-.372.476-.558.705-.355.428-.721.85-1.099 1.254a26.31 26.31 0 0 1-2.471 2.338c-.099.084-.198.162-.296.24-.175.145.372-.294.122-.096-.047.037-.088.073-.134.103-.233.18-.471.361-.715.536a25.323 25.323 0 0 1-4.744 2.712l.418-.18a24.988 24.988 0 0 1-6.436 1.82c.157-.025.308-.043.465-.067a25.274 25.274 0 0 1-6.877 0c.156.024.308.042.465.066a24.99 24.99 0 0 1-6.436-1.82l.418.181a26.087 26.087 0 0 1-3.011-1.56 22.86 22.86 0 0 1-1.384-.905 62.263 62.263 0 0 1-.651-.47c-.11-.084-.227-.168-.337-.259-.047-.036-.088-.072-.134-.102-.047-.037-.087-.073-.134-.103.076.06.145.12.221.175-.895-.681-1.727-1.483-2.506-2.296a27.7 27.7 0 0 1-1.633-1.862c-.088-.115-.18-.223-.268-.338-.035-.048-.07-.09-.105-.138-.034-.049-.07-.09-.104-.14l.168.23c-.802-1-1.476-2.151-2.087-3.278v1.826a27.598 27.598 0 0 1 1.837-2.935c.076-.103.151-.211.227-.314.134-.187-.29.38-.093.127.035-.048.07-.09.105-.139.18-.24.372-.476.558-.705.355-.428.72-.85 1.099-1.253a26.309 26.309 0 0 1 2.47-2.339c.1-.084.198-.162.297-.24.174-.145-.372.295-.122.096.046-.037.087-.073.134-.103.232-.18.47-.361.715-.536a25.226 25.226 0 0 1 4.744-2.712l-.419.18a24.982 24.982 0 0 1 6.436-1.82c-.157.025-.308.043-.465.067a25.275 25.275 0 0 1 6.878 0c-.157-.024-.308-.042-.465-.066 2.215.313 4.378.928 6.436 1.82l-.419-.181c1.035.452 2.041.976 3.012 1.56.471.284.93.585 1.384.905.221.156.436.313.651.47.11.084.227.168.337.259.047.036.087.072.134.102.046.037.087.073.134.103-.076-.06-.146-.12-.221-.175.895.675 1.726 1.483 2.505 2.296a27.837 27.837 0 0 1 1.634 1.862c.087.115.18.223.268.338.034.048.069.09.104.138.035.049.07.09.105.14l-.169-.23c.803 1 1.477 2.152 2.087 3.285.448.825 1.605 1.169 2.384.65.803-.536 1.105-1.59.628-2.47a29.12 29.12 0 0 0-7.494-8.896 26.513 26.513 0 0 0-9.977-4.947 26.869 26.869 0 0 0-11.854-.26A26.347 26.347 0 0 0 77.6 60.076 28.719 28.719 0 0 0 69.8 68.61c-.395.657-.89 1.368-.785 2.17.082.626.512 1.229.832 1.765a29.619 29.619 0 0 0 1.65 2.441 27.557 27.557 0 0 0 3.768 4.146c2.919 2.604 6.308 4.58 9.989 5.756 3.744 1.193 7.732 1.488 11.61.952a26.432 26.432 0 0 0 10.668-3.954c3.256-2.097 6.041-4.881 8.239-8.13.5-.74.965-1.506 1.389-2.295.448-.826.215-2.013-.628-2.471-.814-.464-1.901-.241-2.378.639Z" fill="url(#b)"/><path d="M98.276 70.538c0 .308-.024.615-.059.916.024-.162.041-.319.064-.482a7.615 7.615 0 0 1-.465 1.796l.175-.434a7.316 7.316 0 0 1-.61 1.188c-.059.09-.117.174-.175.259-.134.199.133-.175.133-.175-.005.036-.093.12-.122.15a7.63 7.63 0 0 1-.884.922c-.046.043-.098.085-.145.127-.15.133.338-.253.175-.138-.087.06-.163.12-.25.18-.372.26-.768.477-1.18.657l.418-.18a7.007 7.007 0 0 1-1.732.482c.157-.024.308-.043.465-.067a6.722 6.722 0 0 1-1.773 0c.156.024.308.043.465.067a6.935 6.935 0 0 1-1.733-.483l.419.181a6.895 6.895 0 0 1-1.146-.632c-.087-.06-.168-.121-.25-.181-.192-.139.169.138.169.138-.035-.006-.116-.096-.145-.126a7.732 7.732 0 0 1-.89-.916c-.04-.048-.081-.103-.122-.15-.128-.158.244.349.134.18-.059-.09-.117-.169-.175-.26a7.336 7.336 0 0 1-.634-1.223l.175.434a7.69 7.69 0 0 1-.465-1.796c.023.163.04.32.064.483a7.477 7.477 0 0 1 0-1.839c-.024.163-.04.32-.064.483.081-.621.238-1.218.465-1.796l-.175.434a7.32 7.32 0 0 1 .611-1.188c.058-.09.116-.175.174-.259.134-.199-.133.175-.133.175.005-.036.093-.12.122-.15a7.63 7.63 0 0 1 .884-.922c.046-.043.098-.085.145-.127.151-.133-.337.253-.175.138.088-.06.163-.12.25-.18.372-.26.768-.477 1.18-.657l-.418.18a7 7 0 0 1 1.733-.482c-.157.024-.308.042-.465.067a6.722 6.722 0 0 1 1.773 0c-.157-.025-.308-.043-.465-.067a6.933 6.933 0 0 1 1.732.482l-.418-.18a6.891 6.891 0 0 1 1.395.813c.192.139-.169-.138-.169-.138.035.006.117.096.146.126a7.728 7.728 0 0 1 .89.916c.04.048.08.103.121.15.128.157-.244-.349-.133-.18.058.09.116.169.174.26.25.385.46.795.634 1.223l-.175-.434a7.69 7.69 0 0 1 .465 1.796c-.023-.163-.04-.32-.064-.483.035.308.053.615.059.922.005.947.796 1.85 1.744 1.808.942-.042 1.75-.795 1.744-1.808-.012-1.76-.512-3.573-1.5-5.014-1.076-1.56-2.5-2.7-4.233-3.362-3.226-1.236-7.168-.139-9.348 2.621a9.402 9.402 0 0 0-2.03 5.165c-.139 1.766.309 3.622 1.187 5.14.854 1.477 2.162 2.755 3.68 3.466 1.738.813 3.581 1.048 5.46.669 3.313-.67 6.133-3.652 6.644-7.124.076-.518.14-1.036.14-1.56.006-.947-.808-1.85-1.744-1.808a1.806 1.806 0 0 0-1.744 1.808Z" fill="url(#c)"/><defs><linearGradient id="b" x1="93.196" y1="55" x2="93.196" y2="86.097" gradientUnits="userSpaceOnUse"><stop stop-color="#63DCDB"/><stop offset="1" stop-color="#79F6B1"/></linearGradient><linearGradient id="c" x1="93.196" y1="61.658" x2="93.196" y2="79.4" gradientUnits="userSpaceOnUse"><stop stop-color="#63DCDB"/><stop offset="1" stop-color="#79F6B1"/></linearGradient><filter id="a" x="0" y="0" width="89" height="83" filterUnits="userSpaceOnUse" color-interpolation-filters="sRGB"><feFlood flood-opacity="0" result="BackgroundImageFix"/><feBlend in="SourceGraphic" in2="BackgroundImageFix" result="shape"/><feColorMatrix in="SourceAlpha" values="0 0 0 0 0 0 0 0 0 0 0 0 0 0 0 0 0 0 127 0" result="hardAlpha"/><feOffset dy="4"/><feGaussianBlur stdDeviation="15"/><feComposite in2="hardAlpha" operator="arithmetic" k2="-1" k3="1"/><feColorMatrix values="0 0 0 0 0.5 0 0 0 0 1 0 0 0 0 0.625065 0 0 0 1 0"/><feBlend in2="shape" result="effect1_innerShadow"/></filter></defs></svg>
